icons_vscode/asciidoc.svg

<svg xmlns="http://www.w3.org/2000/svg" viewBox="0 0 244 244"><path d="M60.31 0A60.33 60.33 0 0 0 0 60.3v123.39A60.33 60.33 0 0 0 60.31 244H183.7a60.33 60.33 0 0 0 60.3-60.31V60.3A60.33 60.33 0 0 0 183.7 0Z" style="fill:#fff"/><path d="M129.68 27a6.32 6.32 0 0 0-5.68 3.89l-37.81 90.87a6.32 6.32 0 1 0 11.56 5.11l.11-.26 31.9-76.73L196.66 213a6.32 6.32 0 1 0 11.79-4.57l-.09-.23-72.71-177.28a6.32 6.32 0 0 0-6-3.92Z" style="fill:#191919;stroke:#191919;stroke-linecap:round;stroke-linejoin:round;stroke-width:8px"/><path d="M76.13 155.89a6.32 6.32 0 0 0-5.74 4l-20.08 48.28a6.32 6.32 0 0 0 11.62 5L62 213l20.08-48.31a6.32 6.32 0 0 0-5.94-8.83Z" style="fill:#191919;stroke:#191919;stroke-miterlimit:1.5;stroke-width:8px"/><path d="M32.85 154.91a6.32 6.32 0 1 0-.26 12.64h73.26a6.32 6.32 0 0 0 .25-12.64zM46.21 121.89a6.32 6.32 0 1 0-.21 12.65h73.25a6.32 6.32 0 1 0 .26-12.64h-73.3Z" style="fill:#e40046;stroke:#e40046;stroke-linecap:round;stroke-linejoin:round;stroke-width:8px"/></svg>

<svg xmlns="http://www.w3.org/2000/svg" viewBox="0 0 244 244"><path d="M60.31,0A60.33,60.33,0,0,0,0,60.3V183.69A60.33,60.33,0,0,0,60.31,244H183.7A60.33,60.33,0,0,0,244,183.69V60.3A60.33,60.33,0,0,0,183.7,0Z" style="fill:#fff"/><path d="M129.68,27A6.32,6.32,0,0,0,124,30.89L86.19,121.76a6.32,6.32,0,1,0,11.56,5.11l.11-.26,31.9-76.73L196.66,213a6.32,6.32,0,1,0,11.79-4.57l-.09-.23L135.65,30.92a6.32,6.32,0,0,0-6-3.92Z" style="fill:#191919;stroke:#191919;stroke-linecap:round;stroke-linejoin:round;stroke-width:8px"/><path d="M76.13,155.89a6.32,6.32,0,0,0-5.74,4L50.31,208.17a6.32,6.32,0,0,0,11.62,5L62,213l20.08-48.31a6.32,6.32,0,0,0-5.94-8.83Z" style="fill:#191919;stroke:#191919;stroke-miterlimit:1.5;stroke-width:8px"/><path d="M32.85,154.91a6.32,6.32,0,1,0-.26,12.64h73.26a6.32,6.32,0,0,0,.25-12.64H32.85Z" style="fill:#e40046;stroke:#e40046;stroke-linecap:round;stroke-linejoin:round;stroke-width:8px"/><path d="M46.21,121.89A6.32,6.32,0,1,0,46,134.54h73.25a6.32,6.32,0,1,0,.26-12.64H46.21Z" style="fill:#e40046;stroke:#e40046;stroke-linecap:round;stroke-linejoin:round;stroke-width:8px"/></svg>
